src/assets/payment-icon-white.svg

<svg width="29" height="28" viewBox="0 0 29 28" fill="none" xmlns="http://www.w3.org/2000/svg">
<path d="M24.6198 7.19817H3.23303V6.33544L22.0533 4.81704V6.33544H24.6198V3.74726C24.6198 1.84926 23.0953 0.517212 21.2338 0.784657L4.05428 3.25896C2.19107 3.52813 0.666626 5.30017 0.666626 7.19817V24.4527C0.666626 25.3679 1.02714 26.2457 1.66887 26.8929C2.3106 27.54 3.18096 27.9036 4.0885 27.9036H24.6198C25.5273 27.9036 26.3977 27.54 27.0394 26.8929C27.6811 26.2457 28.0416 25.3679 28.0416 24.4527V10.6491C28.0416 9.73384 27.6811 8.85608 27.0394 8.20891C26.3977 7.56174 25.5273 7.19817 24.6198 7.19817ZM22.0533 19.2867C21.7162 19.2866 21.3824 19.2195 21.071 19.0893C20.7595 18.9591 20.4766 18.7683 20.2383 18.5278C20 18.2873 19.8109 18.0018 19.682 17.6876C19.5531 17.3735 19.4868 17.0368 19.4869 16.6968C19.4871 16.3568 19.5536 16.0201 19.6827 15.7061C19.8118 15.392 20.001 15.1066 20.2395 14.8663C20.4779 14.626 20.761 14.4354 21.0725 14.3054C21.3841 14.1753 21.7179 14.1085 22.0551 14.1086C22.7359 14.1088 23.3888 14.3818 23.8701 14.8675C24.3514 15.3532 24.6217 16.0119 24.6215 16.6985C24.6212 17.3852 24.3505 18.0436 23.8689 18.529C23.3873 19.0144 22.7342 19.2869 22.0533 19.2867Z" fill="white"/>
</svg>

<svg width="29" height="28" fill="none" xmlns="http://www.w3.org/2000/svg"><path d="M24.62 7.198H3.233v-.863l18.82-1.518v1.518h2.567V3.747c0-1.898-1.525-3.23-3.386-2.962L4.054 3.259C2.191 3.529.667 5.3.667 7.199v17.254c0 .915.36 1.793 1.002 2.44a3.408 3.408 0 002.42 1.01h20.53c.908 0 1.779-.363 2.42-1.01a3.466 3.466 0 001.003-2.44V10.649a3.46 3.46 0 00-1.003-2.44 3.407 3.407 0 00-2.42-1.01zm-2.567 12.089a2.548 2.548 0 01-1.815-.76 2.59 2.59 0 01-.751-1.83 2.61 2.61 0 01.753-1.83 2.565 2.565 0 011.815-.758c.68 0 1.334.273 1.815.758a2.6 2.6 0 01-.001 3.662 2.556 2.556 0 01-1.816.758z" fill="#fff"/></svg>
